X: 13531
T: Flowers Of The Forest
R: reel
M: 4/4
K: Gmajor
G2 GG (AB) (de)|dB (AG) E2 D2|G2 GG (AB) de|(dB) (A>G) G4||
(DE) =FF (EF) GG|DD (BA) (GE) DD|D2 EG e2 dB|A2 A B/A/ G4||

